X:2363
T:The Boaldyn (Baldwin) song
C:Mrs Killey, Ballasalla, 1920.
C:Traditional
O:Isle of Man 
Z:Collected by Mona Douglas
B:Kiaull Vannin #363 
M:6/8 
L:1/8 
K:G 
B2d G2A|B2c d3|ccB ABB|ccd !fermata!e2c|B2d G2A|B2c d2B|G2A B2c|G2A zz/||

